X: 10843
T: Dregs Of Birch, The
R: reel
M: 4/4
K: Amajor
|:c2 BA cefe|AcBA F2 AB|ceag feAB|cecB BAAB|
c2 BA c3g|agfe aAAB|c3c BABc|ecBc A4:|
|:f3g agfe|accB Affg|f3g a3b|agfe a3g|
fefg agfe|accB Afed|c3B BABc|ecBc A4:|

